svgs/sharp-regular/hands-bound.svg

<svg xmlns="http://www.w3.org/2000/svg" viewBox="0 0 640 512"><!--! Font Awesome Pro 6.6.0 by @fontawesome - https://fontawesome.com License - https://fontawesome.com/license (Commercial License) Copyright 2024 Fonticons, Inc. --><path d="M160 0L136 0 40 0 16 0l0 24 0 232 0 9.9 7 7 79 79L96 352l0 48 24 0 400 0 24 0 0-48-6.1 0 79-79 7-7 0-9.9 0-232 0-24L600 0 504 0 480 0l0 24 0 118.1-31-31-17-17-17 17-95 95-95-95-17-17-17 17-31 31L160 24l0-24zM344 249.9l88-88L458.1 188l-51 51-17 17L424 289.9l17-17 80-80 7-7 0-9.9 0-128 48 0 0 198.1L474.2 347.8l-4.2 4.2L344 352l0-8 0-94.1zM296 352l-126.1 0-12.2-12.2L64 246.1 64 48l48 0 0 128 0 9.9 7 7 80 80 17 17L249.9 256l-17-17-51-51L208 161.9l88 88 0 94.1 0 8zM96 424l0 48 24 0 8 0 0 16 0 24 48 0 0-24 0-16 120 0 0 16 0 24 48 0 0-24 0-16 120 0 0 16 0 24 48 0 0-24 0-16 8 0 24 0 0-48-24 0-400 0-24 0z"/></svg>

<svg xmlns="http://www.w3.org/2000/svg" viewBox="0 0 640 512"><!--! Font Awesome Pro 6.5.2 by @fontawesome - https://fontawesome.com License - https://fontawesome.com/license (Commercial License) Copyright 2024 Fonticons, Inc. --><path d="M160 0H136 40 16V24 256v9.9l7 7 79 79H96v48h24H520h24V352h-6.1l79-79 7-7V256 24 0H600 504 480V24 142.1l-31-31-17-17-17 17-95 95-95-95-17-17-17 17-31 31V24 0zM344 249.9l88-88L458.1 188l-51 51-17 17L424 289.9l17-17 80-80 7-7V176 48h48V246.1L474.2 347.8l-4.2 4.2H344v-8V249.9zM296 352H169.9l-12.2-12.2L64 246.1V48h48V176v9.9l7 7 80 80 17 17L249.9 256l-17-17-51-51L208 161.9l88 88V344v8zM96 424v48h24 8v16 24h48V488 472H296v16 24h48V488 472H464v16 24h48V488 472h8 24V424H520 120 96z"/></svg>
